svgs/qibla_direction.svg

<svg width="192" height="192" viewBox="0 0 192 192" fill="none" xmlns="http://www.w3.org/2000/svg">
<path d="M108.09 140.77L99.4351 102.287L133.966 121.326L116.771 125.599L108.09 140.77Z" stroke="black" stroke-width="8" stroke-linejoin="round"/>
<path d="M72.2631 90.31L59.2151 71.452L69.1021 56.921L86.2401 53.403L99.1501 72.59L88.6121 85.597L72.2631 90.31Z" stroke="black" stroke-width="8" stroke-linejoin="round"/>
<path d="M96 170C136.869 170 170 136.869 170 96C170 55.1309 136.869 22 96 22C55.1309 22 22 55.1309 22 96C22 136.869 55.1309 170 96 170Z" stroke="black" stroke-width="12" stroke-linejoin="round"/>
</svg>

<svg width="192" height="192" fill="none" xmlns="http://www.w3.org/2000/svg"><path d="m108.09 140.77-8.655-38.483 34.531 19.039-17.195 4.273-8.681 15.171ZM72.263 90.31 59.215 71.452l9.887-14.531 17.138-3.518L99.15 72.59 88.612 85.597 72.263 90.31Z" stroke="#000" stroke-width="8" stroke-linejoin="round"/><path d="M96 170c40.869 0 74-33.131 74-74 0-40.87-33.131-74-74-74-40.87 0-74 33.13-74 74 0 40.869 33.13 74 74 74Z" stroke="#000" stroke-width="12" stroke-linejoin="round"/></svg>
